icons/svg/recents-active_14.svg

<?xml version="1.0" encoding="UTF-8"?>
<svg width="14px" height="14px" viewBox="0 0 14 14" version="1.1" xmlns="http://www.w3.org/2000/svg" xmlns:xlink="http://www.w3.org/1999/xlink">
    <!-- Generator: Sketch 59.1 (86144) - https://sketch.com -->
    <title>recents-active_14</title>
    <desc>Created with Sketch.</desc>
    <g id="Icons-Webex" stroke="none" stroke-width="1" fill="none" fill-rule="evenodd">
        <g id="phone/recents-active_14" fill="#171B1F">
            <path d="M8.50628052,9.76491394 C8.37928052,9.76491394 8.25228052,9.71491394 8.15628052,9.61491394 L6.759,8.23143005 C6.594,8.06043005 6.5,7.82543005 6.5,7.58543005 L6.5,3.50141907 C6.5,3.22441907 6.729,3.00141907 7,3.00141907 C7.271,3.00141907 7.5,3.22441907 7.5,3.50141907 L7.5,7.60455322 L8.85528052,8.91391394 C9.04528052,9.11091394 9.04228052,9.42791394 8.84928052,9.62091394 C8.75328052,9.71691394 8.62928052,9.76491394 8.50628052,9.76491394 Z M0,7 C0,10.866 3.134,14 7,14 C10.866,14 14,10.866 14,7 C14,3.134 10.866,0 7,0 C3.134,0 0,3.134 0,7 Z" id="fill"></path>
        </g>
    </g>
</svg>

<svg width="14" height="14" xmlns="http://www.w3.org/2000/svg"><path d="M8.506 9.765a.484.484 0 01-.35-.15L6.76 8.23a.936.936 0 01-.259-.646V3.501c0-.277.229-.5.5-.5s.5.223.5.5v4.104l1.355 1.309a.507.507 0 01-.006.707.484.484 0 01-.343.144zM0 7a7 7 0 1014 0A7 7 0 000 7z" fill="#171B1F" fill-rule="evenodd"/></svg>
